X: 99
M:6/8
L:1/8
K:D
|:d| def efg |agd ecA| def efg|afd ecA|f a2 fa2|f a2 f a2|ABc| ABc| d2 A FD:|

